symbols-de/shields/motorway_10x2.svg

<?xml version="1.0" encoding="UTF-8" standalone="no"?>
<svg
   xmlns:dc="http://purl.org/dc/elements/1.1/"
   xmlns:cc="http://creativecommons.org/ns#"
   xmlns:rdf="http://www.w3.org/1999/02/22-rdf-syntax-ns#"
   xmlns:svg="http://www.w3.org/2000/svg"
   xmlns="http://www.w3.org/2000/svg"
   xmlns:sodipodi="http://sodipodi.sourceforge.net/DTD/sodipodi-0.dtd"
   xmlns:inkscape="http://www.inkscape.org/namespaces/inkscape"
   width="100%"
   height="100%"
   viewBox="0 0 68.0 24.0"
   id="svg2"
   version="1.1"
   inkscape:version="0.91 r13725"
   sodipodi:docname="autobahn_10x2.svg">
  <metadata
     id="metadata9">
    <rdf:RDF>
      <cc:Work
         rdf:about="">
        <dc:format>image/svg+xml</dc:format>
        <dc:type
           rdf:resource="http://purl.org/dc/dcmitype/StillImage" />
        <dc:title></dc:title>
      </cc:Work>
    </rdf:RDF>
  </metadata>
  <defs
     id="defs7" />
  <sodipodi:namedview
     pagecolor="#ffffff"
     bordercolor="#666666"
     borderopacity="1"
     objecttolerance="10"
     gridtolerance="10"
     guidetolerance="10"
     inkscape:pageopacity="0"
     inkscape:pageshadow="2"
     inkscape:window-width="959"
     inkscape:window-height="670"
     id="namedview5"
     showgrid="false"
     inkscape:zoom="5.1911765"
     inkscape:cx="34"
     inkscape:cy="12"
     inkscape:window-x="567"
     inkscape:window-y="286"
     inkscape:window-maximized="0"
     inkscape:current-layer="svg2" />
  <path
     style="fill:#365eaf;fill-opacity:1;stroke:#0528a2;stroke-width:0.99999994;stroke-miterlimit:4;stroke-dasharray:none;stroke-opacity:1"
     d="m 34,0.49999742 c -0.480284,0 -0.719727,0.0033 -0.719727,0.01172 L 1.582107,2.2812494 c -0.72043103,0.08485 -1.08210703,0.213112 -1.08210703,0.382812 0,6.223959 0,12.4479176 0,18.6718756 0,0.1697 0.361676,0.297965 1.08210703,0.382812 l 31.698166,1.769531 c 0,0.0085 0.239448,0.01172 0.719727,0.01172 0.480287,0 0.719727,-0.0033 0.719727,-0.01172 l 31.698165,-1.769533 c 0.72043,-0.08485 1.08211,-0.213113 1.08211,-0.382812 0,-6.223959 0,-12.4479166 0,-18.6718756 0,-0.1697 -0.36168,-0.297965 -1.08211,-0.382812 L 34.719727,0.51171542 c 0,-0.0085 -0.239447,-0.01172 -0.719727,-0.01172 z"
     id="path6"
     inkscape:connector-curvature="0"
     sodipodi:nodetypes="sccccccsccccccs" />
</svg>

<?xml version="1.0" encoding="UTF-8"?>
<svg xmlns="http://www.w3.org/2000/svg" xmlns:xlink="http://www.w3.org/1999/xlink" width="71pt" height="30pt" viewBox="0 0 71 30" version="1.1">
<g id="surface1">
<path style="fill-rule:nonzero;fill:rgb(21.176471%,36.862745%,68.627451%);fill-opacity:1;stroke-width:1;stroke-linecap:butt;stroke-linejoin:miter;stroke:rgb(1.960784%,15.686275%,63.529412%);stroke-opacity:1;stroke-miterlimit:4;" d="M 34 0.5 C 33.521127 0.5 33.28169 0.503125 33.28169 0.5125 L 1.582526 2.28125 C 0.860475 2.365625 0.50132 2.49375 0.50132 2.6625 C 0.50132 8.8875 0.50132 15.1125 0.50132 21.334375 C 0.50132 21.50625 0.860475 21.634375 1.582526 21.71875 L 33.28169 23.4875 C 33.28169 23.496875 33.521127 23.5 34 23.5 C 34.478873 23.5 34.71831 23.496875 34.71831 23.4875 L 66.417474 21.71875 C 67.139525 21.634375 67.49868 21.50625 67.49868 21.334375 C 67.49868 15.1125 67.49868 8.8875 67.49868 2.6625 C 67.49868 2.49375 67.139525 2.365625 66.417474 2.28125 L 34.71831 0.5125 C 34.71831 0.503125 34.478873 0.5 34 0.5 Z M 34 0.5 " transform="matrix(1.044118,0,0,1.25,0,0)"/>
</g>
</svg>
